X:1
T:Title
%%score { ( 1 5 6 ) | ( 2 3 4 ) }
L:1/8
M:4/4
K:F
V:1 treble nm="Grand Piano"
V:5 treble 
V:6 treble 
V:2 bass 
V:3 bass 
V:4 bass 
V:1
 z4 z[Q:1/4=90] AGC | z C z G AdcF | A6 z2 | E4 z4[K:bass] | %4
 C-[_E,C-] [=E,B,C-]2 [A,C][K:treble]AAB | c4 .d2 z2 | d6 z2 | z2 c4 z2 |[M:5/8] [A,F]- [A,F]3 z |] %9
V:2
 z8 | z4[K:treble] F4 | [F,C]4[K:bass] z .[A,CF]3 | z4 .E2 z2 | z4 z [F,F]3- | %5
 [F,F] z A,4[K:treble] z2[K:bass] | z4[K:treble] [=B,DF]4[K:bass] | z2 A,2 G,2 z2 | %8
[M:5/8] F,,- F,,3 z |] %9
V:3
 z4 z [CF] .[B,C]2 | [A,C][F,A,]A,[K:treble]B, CB, A,2 | .F2 z2[K:bass] F,4 | %3
 C-[G,C-]C-[G,CE] [G,C]-[G,-B,C][G,B,]E, | F,^F,,G,,C, [F,,F,]CCG, | %5
 A,[F,A,] F,2 z[K:treble] cD[K:bass][^F,CD] | %6
 [G,B,D][K:treble][_A,DF][=A,DF][B,DE] z2[K:bass] =B,,2 | C,6 C,2- |[M:5/8] C,- C,3 z |] %9
V:4
 z4 z F,3- | F, z F,6[K:treble] | x4[K:bass] x4 | .[G,B,]2 C,6 | x8 | z4 D,4[K:treble][K:bass] | %6
 x[K:treble] x5[K:bass] x2 | x8 |[M:5/8] x5 |] %9
V:5
 x8 | F4 z4 | z FED CccF | z B,B,B BDE[K:bass][B,D] | A,2 z2 z4[K:treble] | z FFc F2- [FB]A | %6
 [GB]BAG z2 f2 | [CFA]2 F2 E2 [B,E]2 |[M:5/8] x5 |] %9
V:6
 x8 | z2 C2 z4 | x8 | x7[K:bass] x | x5[K:treble] x3 | x8 | z4 _A4 | x8 |[M:5/8] x5 |] %9

